svg/fluentui-system-icons/ic_fluent_speaker_off_48_regular.svg

<svg width="48" height="48" viewBox="0 0 48 48" fill="none" xmlns="http://www.w3.org/2000/svg">
<path d="M28 29.7678L41.8661 43.6339C42.3543 44.122 43.1457 44.122 43.6339 43.6339C44.122 43.1457 44.122 42.3543 43.6339 41.8661L6.13388 4.36612C5.64573 3.87796 4.85427 3.87796 4.36611 4.36612C3.87796 4.85427 3.87796 5.64573 4.36611 6.13388L13.2322 15H9C6.10051 15 3.75 17.3505 3.75 20.25V27.75C3.75 30.6495 6.10051 33 9 33H13.702C14.8734 33 16.0034 33.4328 16.875 34.2153L25.081 41.5815C26.2077 42.5929 28 41.7933 28 40.2793V29.7678ZM25.5 27.2678V38.5981L18.5451 32.3549C17.2146 31.1606 15.4898 30.5 13.702 30.5H9C7.48122 30.5 6.25 29.2688 6.25 27.75V20.25C6.25 18.7312 7.48122 17.5 9 17.5H13.702C14.3147 17.5 14.92 17.4224 15.5046 17.2723L25.5 27.2678ZM19.8115 14.5082L18.0412 12.7379L25.081 6.41847C26.2076 5.40709 28 6.20669 28 7.72074V22.6967L25.5 20.1967V9.40185L19.8115 14.5082ZM36.1857 30.8824L34.335 29.0317C34.966 27.7376 35.5 26.0404 35.5 24C35.5 21.5224 34.7127 19.5507 33.9203 18.1923C33.5242 17.5133 33.1298 16.9931 32.8397 16.6477C32.695 16.4754 32.577 16.3476 32.499 16.2664C32.46 16.2259 32.4311 16.197 32.414 16.1802L32.3972 16.164L32.398 16.1646C31.8935 15.6947 31.8647 14.9048 32.334 14.3994C32.8038 13.8935 33.5947 13.8642 34.1006 14.334L33.25 15.25C34.1006 14.334 34.1014 14.3347 34.1014 14.3347L34.1022 14.3356L34.1042 14.3374L34.1092 14.3421L34.1228 14.355C34.1336 14.3653 34.1476 14.3788 34.1646 14.3955C34.1987 14.4289 34.245 14.4753 34.3018 14.5343C34.4152 14.6524 34.5707 14.8215 34.754 15.0398C35.1202 15.4757 35.6008 16.1117 36.0797 16.9327C37.0373 18.5743 38 20.9776 38 24C38 26.9108 37.1071 29.2474 36.1857 30.8824ZM41.0185 35.7152L39.1733 33.87C40.3712 31.5479 41.5 28.2383 41.5 24C41.5 19.4474 40.1976 15.9662 38.906 13.6297C38.2594 12.46 37.6157 11.5776 37.1403 10.9943C36.9028 10.7028 36.708 10.4867 36.5767 10.3474C36.511 10.2777 36.4614 10.2274 36.4303 10.1965C36.4148 10.181 36.4039 10.1704 36.398 10.1648L36.3949 10.1617L36.393 10.16C35.8916 9.68785 35.8665 8.89867 36.3376 8.39562C36.8094 7.89169 37.6004 7.8657 38.1044 8.33755L37.2501 9.24987C38.1044 8.33755 38.1053 8.33839 38.1053 8.33839L38.1063 8.33935L38.1087 8.34162L38.115 8.34761L38.1336 8.36536C38.1485 8.37975 38.1685 8.39926 38.1932 8.42388C38.2427 8.4731 38.3112 8.54276 38.396 8.6327C38.5655 8.81253 38.8003 9.07375 39.0784 9.41509C39.6343 10.0974 40.3656 11.1025 41.094 12.4203C42.5524 15.0587 44 18.9526 44 24C44 29.0474 42.5524 32.9412 41.094 35.5797L41.0739 35.6159L41.0185 35.7152Z" fill="#212121"/>
</svg>

<svg xmlns="http://www.w3.org/2000/svg" width="48" height="48"><path d="m28 29.768 13.866 13.866a1.25 1.25 0 0 0 1.768-1.768l-37.5-37.5a1.25 1.25 0 1 0-1.768 1.768L13.232 15H9a5.25 5.25 0 0 0-5.25 5.25v7.5C3.75 30.65 6.1 33 9 33h4.702a4.75 4.75 0 0 1 3.173 1.215l8.206 7.366C26.208 42.593 28 41.794 28 40.28V29.768Zm-2.5-2.5v11.33l-6.955-6.243a7.25 7.25 0 0 0-4.843-1.855H9a2.75 2.75 0 0 1-2.75-2.75v-7.5A2.75 2.75 0 0 1 9 17.5h4.702c.613 0 1.218-.078 1.803-.228l9.995 9.996Zm-5.689-12.76-1.77-1.77 7.04-6.32C26.208 5.408 28 6.207 28 7.721v14.976l-2.5-2.5V9.402l-5.689 5.106Zm16.375 16.374-1.851-1.85A11.422 11.422 0 0 0 35.5 24c0-2.478-.787-4.45-1.58-5.808a11.136 11.136 0 0 0-1.08-1.544 7.737 7.737 0 0 0-.426-.468l-.017-.016h.001a1.25 1.25 0 0 1 1.703-1.83l-.851.916c.85-.916.851-.915.851-.915h.001l.002.002.005.005.014.013a3.95 3.95 0 0 1 .179.18c.113.117.269.287.452.505.366.436.847 1.072 1.326 1.893a13.964 13.964 0 0 1 .106 13.95Zm4.833 4.833-1.846-1.845C40.371 31.548 41.5 28.238 41.5 24c0-4.553-1.302-8.034-2.594-10.37a17.904 17.904 0 0 0-1.766-2.636 12.01 12.01 0 0 0-.71-.797 1.896 1.896 0 0 0-.032-.032l-.003-.003-.002-.002a1.25 1.25 0 0 1 1.711-1.822l-.854.912.855-.912.001.001.003.003.006.006.019.017.06.059c.049.05.117.119.202.209.17.18.404.44.682.782a20.408 20.408 0 0 1 2.016 3.005C42.552 15.06 44 18.953 44 24s-1.448 8.941-2.906 11.58l-.02.036-.055.1Z"/></svg>
